X: 1
T: Pernod
M: 3/4
L: 1/8
R: waltz
K: Bmin
|: f2 Bc de | f4 ff | fe ^de fg | f2 e2 fg |!
 aA gA fe | e2 c4 | cd ef ec |1 d2 B4 :|2 d2 B3 A :|!
|: Be eg fe | Be eg fe | a2 ef ge | fd B4 |!
GB Bd cB | FB Bd cB | cd ef ec |1 d2 B3 A :|2 de fg fe :|!
